gamepad-round-right.svg

<svg fill="currentColor" viewBox="0 0 24 24"><path d="M4 8h4V4a2 2 0 0 1 2-2h4a2 2 0 0 1 2 2v4h4a2 2 0 0 1 2 2v4a2 2 0 0 1-2 2h-4v4a2 2 0 0 1-2 2h-4a2 2 0 0 1-2-2v-4H4a2 2 0 0 1-2-2v-4a2 2 0 0 1 2-2m12 2v4h4v-4z"/></svg>

<svg  viewBox="0 0 24 24" fill="currentColor"><path  d="M4,8H8V4A2,2 0 0,1 10,2H14A2,2 0 0,1 16,4V8H20A2,2 0 0,1 22,10V14A2,2 0 0,1 20,16H16V20A2,2 0 0,1 14,22H10A2,2 0 0,1 8,20V16H4A2,2 0 0,1 2,14V10A2,2 0 0,1 4,8M16,10V14H20V10H16Z"/></svg>
